packages/icons/assets/LogActivity.svg

<svg xmlns="http://www.w3.org/2000/svg" fill="none" viewBox="0 0 16 16"><g clip-path="url(#LogActivity_svg__LogActivity_svg__LogActivity_svg__LogActivity_svg__clip0_16_23)"><path fill="#414141" d="M8.20001 15.143l.58496-.812c.65574.4375 1.42673.6704 2.21503.669 1.0609 0 2.0783-.4214 2.8284-1.1716C14.5786 13.0783 15 12.0609 15 11c0-1.06087-.4214-2.07828-1.1716-2.82843C13.0783 7.42142 12.0609 7 11 7c-.9596.00071-1.88701.3464-2.61298.974-.56977.49201-.98945 1.13454-1.21099 1.854l1.11798-.69999.52996.84799-1.69995 1.059-.84802.53-.53003-.848-1.05896-1.7.84796-.53.67102 1.074c.27068-.90267.7906-1.71065 1.5-2.331C8.61829 6.43376 9.7891 5.99658 11 6c1.3256.00159 2.5964.52888 3.5338 1.46622C15.4711 8.40355 15.9984 9.6744 16 11c-.0016 1.3256-.5289 2.5964-1.4662 3.5338C13.5964 15.4711 12.3256 15.9984 11 16c-.9982.002-1.9739-.2966-2.79999-.857zM2 7V6h2v1H2zM0 7V6h1v1H0zm2-2V4h4v1H2zM0 5V4h1v1H0zm2-2V2h10v1H2zM0 3V2h1v1H0zm2-2V0h10v1H2zM0 1V0h1v1H0z"/></g><defs><clipPath id="LogActivity_svg__LogActivity_svg__LogActivity_svg__LogActivity_svg__clip0_16_23"><path fill="#fff" d="M0 0h16v16H0z"/></clipPath></defs></svg>

<svg width="16" height="16" viewBox="0 0 16 16" fill="none" xmlns="http://www.w3.org/2000/svg">
<g clip-path="url(#clip0_16_23)">
<path d="M8.20001 15.143L8.78497 14.331C9.44071 14.7685 10.2117 15.0014 11 15C12.0609 15 13.0783 14.5786 13.8284 13.8284C14.5786 13.0783 15 12.0609 15 11C15 9.93913 14.5786 8.92172 13.8284 8.17157C13.0783 7.42142 12.0609 7 11 7C10.0404 7.00071 9.11299 7.3464 8.38702 7.974C7.81725 8.46601 7.39757 9.10854 7.17603 9.828L8.29401 9.12801L8.82397 9.976L7.12402 11.035L6.276 11.565L5.74597 10.717L4.68701 9.017L5.53497 8.487L6.20599 9.561C6.47667 8.65833 6.99659 7.85035 7.70599 7.23C8.61829 6.43376 9.7891 5.99658 11 6C12.3256 6.00159 13.5964 6.52888 14.5338 7.46622C15.4711 8.40355 15.9984 9.6744 16 11C15.9984 12.3256 15.4711 13.5964 14.5338 14.5338C13.5964 15.4711 12.3256 15.9984 11 16C10.0018 16.002 9.0261 15.7034 8.20001 15.143V15.143ZM2 7V6H4V7H2ZM0 7V6H1V7H0ZM2 5V4H6V5H2ZM0 5V4H1V5H0ZM2 3V2H12V3H2ZM0 3V2H1V3H0ZM2 1V0H12V1H2ZM0 1V0H1V1H0Z" fill="#414141"/>
</g>
<defs>
<clipPath id="clip0_16_23">
<rect width="16" height="16" fill="white"/>
</clipPath>
</defs>
</svg>
